app/dist/common/images/focus-financial-partners.svg

<svg height="18" width="18" xmlns="http://www.w3.org/2000/svg"><path d="m0 0h18v18h-18z" fill="#f0f3fa"/><path d="m7.09 4.992 1.75-.992v1.984zm-2.378 1.35 1.717-.993v1.985z" fill="#0055a3"/><path d="m7.09 7.664 1.75-.992v1.984z" fill="#d49e0f"/><path d="m9.468 6.342 1.783-.993v1.985z" fill="#429439"/><path d="m11.765 7.664 1.735-.992v1.984zm0 2.672 1.735-.992v1.984z" fill="#0055a3"/><path d="m9.468 9.048 1.783-.992v1.984z" fill="#d49e0f"/><path d="m9.468 11.691 1.783-.992v1.985z" fill="#429439"/><path d="m7.09 10.336 1.75-.992v1.984z" fill="#d49e0f"/><path d="m7.09 13.008 1.75-.992v1.984z" fill="#0055a3"/><path d="m4.712 9 1.717-.992v1.984z" fill="#429439"/><path d="m4.712 11.691 1.717-.992v1.985zm6.28-6.699-1.832-.992v1.984l1.83-.992z" fill="#0055a3"/><path d="m8.613 6.342-1.863-.993v1.985z" fill="#429439"/><path d="m6.316 7.664-1.816-.992v1.984zm-.081 2.672-1.735-.992v1.984z" fill="#0055a3"/><path d="m10.992 7.664-1.832-.992v1.984l1.83-.992z" fill="#d49e0f"/><path d="m13.37 6.342-1.799-.993v1.985l1.798-.992z" fill="#0055a3"/><path d="m13.37 9.048-1.799-.992v1.984l1.798-.992z" fill="#429439"/><path d="m13.37 11.691-1.8-.991v1.985l1.798-.993z" fill="#0055a3"/><path d="m10.992 10.336-1.832-.992v1.984l1.83-.992z" fill="#d49e0f"/><path d="m10.992 13.008-1.831-.992v1.984l1.83-.992z" fill="#0055a3"/><path d="m8.613 9-1.863-.992v1.984z" fill="#d49e0f"/><path d="m8.613 11.691-1.863-.991v1.985l1.863-.993z" fill="#429439"/></svg>

<!-- by TradingView --><svg width="18" height="18" xmlns="http://www.w3.org/2000/svg"><path fill="#F0F3FA" d="M0 0h18v18H0z"/><path d="M7.09 4.992L8.84 4v1.984l-1.75-.992zM4.712 6.342l1.717-.993v1.985l-1.717-.992z" fill="#0055A3"/><path d="M7.09 7.664l1.75-.992v1.984l-1.75-.992z" fill="#D49E0F"/><path d="M9.468 6.342l1.783-.993v1.985l-1.783-.992z" fill="#429439"/><path d="M11.765 7.664l1.735-.992v1.984l-1.735-.992zM11.765 10.336l1.735-.992v1.984l-1.735-.992z" fill="#0055A3"/><path d="M9.468 9.048l1.783-.992v1.984l-1.783-.992z" fill="#D49E0F"/><path d="M9.468 11.691l1.783-.992v1.985l-1.783-.993z" fill="#429439"/><path d="M7.09 10.336l1.75-.992v1.984l-1.75-.992z" fill="#D49E0F"/><path d="M7.09 13.008l1.75-.992V14l-1.75-.992z" fill="#0055A3"/><path d="M4.712 9l1.717-.992v1.984L4.712 9z" fill="#429439"/><path d="M4.712 11.691l1.717-.992v1.985l-1.717-.993zM10.992 4.992L9.16 4v1.984l1.83-.992z" fill="#0055A3"/><path d="M8.613 6.342L6.75 5.349v1.985l1.863-.992z" fill="#429439"/><path d="M6.316 7.664L4.5 6.672v1.984l1.816-.992zM6.235 10.336L4.5 9.344v1.984l1.735-.992z" fill="#0055A3"/><path d="M10.992 7.664L9.16 6.672v1.984l1.83-.992z" fill="#D49E0F"/><path d="M13.37 6.342l-1.799-.993v1.985l1.798-.992z" fill="#0055A3"/><path d="M13.37 9.048l-1.799-.992v1.984l1.798-.992z" fill="#429439"/><path d="M13.37 11.691L11.57 10.7v1.985l1.798-.993z" fill="#0055A3"/><path d="M10.992 10.336L9.16 9.344v1.984l1.83-.992z" fill="#D49E0F"/><path d="M10.992 13.008l-1.831-.992V14l1.83-.992z" fill="#0055A3"/><path d="M8.613 9L6.75 8.008v1.984L8.613 9z" fill="#D49E0F"/><path d="M8.613 11.691L6.75 10.7v1.985l1.863-.993z" fill="#429439"/></svg>
